img/logos/grubhub.svg

<?xml version="1.0" encoding="UTF-8"?>
<svg width="370px" height="79px" viewBox="0 0 370 79" version="1.1" xmlns="http://www.w3.org/2000/svg" xmlns:xlink="http://www.w3.org/1999/xlink">
    <!-- Generator: Sketch 52.4 (67378) - http://www.bohemiancoding.com/sketch -->
    <title>grubhub</title>
    <desc>Created with Sketch.</desc>
    <g id="Page-1" stroke="none" stroke-width="1" fill="none" fill-rule="evenodd">
        <g id="grubhub" fill="#7D7D7D">
            <path d="M257.33,1.23 L244.52,1.23 C243.813076,1.23 243.24,1.80307552 243.24,2.51 L243.24,30.84 L230.24,30.84 L230.24,2.51 C230.24,1.80307552 229.666924,1.23 228.96,1.23 L216.16,1.23 C215.453076,1.23 214.88,1.80307552 214.88,2.51 L214.88,75.51 C214.88,76.2169245 215.453076,76.79 216.16,76.79 L228.97,76.79 C229.676924,76.79 230.25,76.2169245 230.25,75.51 L230.25,46.18 L243.25,46.18 L243.25,75.52 C243.25,76.2269245 243.823076,76.8 244.53,76.8 L257.34,76.8 C258.046924,76.8 258.62,76.2269245 258.62,75.52 L258.62,2.52 C258.62269,2.17705318 258.487644,1.84737143 258.245136,1.60486395 C258.002629,1.36235647 257.672947,1.2273101 257.33,1.23 Z" id="Path"></path>
            <path d="M148.47,1.23 L135.36,1.23 C134.698654,1.18992419 134.128068,1.68918705 134.08,2.35 L134.08,54.46 C134.194705,56.5526718 133.587532,58.6212952 132.36,60.32 C131.272089,61.5585124 129.703473,62.2684824 128.055,62.2684824 C126.406527,62.2684824 124.837911,61.5585124 123.75,60.32 C122.526014,58.6199982 121.922404,56.5514873 122.04,54.46 L122.04,54.39 L122.04,36.27 L122.04,2.39 C121.991932,1.72918705 121.421346,1.22992419 120.76,1.27 L107.65,1.27 C106.988654,1.22992419 106.418068,1.72918705 106.37,2.39 L106.37,54.64 C106.37,61.52 108.03,67.64 111.95,71.75 C115.87,75.86 121.56,78.05 128.06,78.05 C134.55,78.05 140.19,75.94 144.16,71.75 C148.13,67.56 149.76,61.48 149.76,54.6 L149.76,2.39 C149.747229,2.06349785 149.602953,1.75603957 149.359986,1.53755822 C149.11702,1.31907687 148.79602,1.20814692 148.47,1.23 Z" id="Path"></path>
            <path d="M21.7,0 C15.2,0 9.57,2.11 5.59,6.3 C1.61,10.49 -2.84217094e-14,16.53 -2.84217094e-14,23.41 L-2.84217094e-14,54.6 C-2.84217094e-14,61.48 1.67,67.6 5.59,71.71 C9.51,75.82 15.2,78.01 21.7,78.01 C28.2,78.01 33.82,75.9 37.8,71.71 C41.78,67.52 43.39,61.48 43.39,54.6 L43.39,37.44 C43.3845066,36.7148924 42.7951284,36.1299792 42.07,36.13 L23.07,36.13 C22.3341213,36.1240923 21.7270315,36.7045942 21.7,37.44 L21.7,50.17 C21.7217323,50.9093409 22.3303622,51.495758 23.07,51.49 L28.07,51.49 L28.07,51.79 L28.07,54.39 C28.1964703,56.5985709 27.5610711,58.7836383 26.27,60.58 C25.1310017,61.8715026 23.4920035,62.611373 21.77,62.611373 C20.0479965,62.611373 18.4089983,61.8715026 17.27,60.58 C15.9619286,58.7897729 15.30879,56.6044065 15.42,54.39 L15.42,51.62 L15.42,23.56 C15.307149,21.3453957 15.9604482,19.159492 17.27,17.37 C18.4089983,16.0784974 20.0479965,15.338627 21.77,15.338627 C23.4920035,15.338627 25.1310017,16.0784974 26.27,17.37 C27.5625532,19.1656398 28.1981085,21.3512437 28.07,23.56 L28.07,26.45 C28.1180894,27.1122207 28.6869271,27.6143978 29.35,27.58 L42.17,27.58 C42.8330729,27.6143978 43.4019106,27.1122207 43.45,26.45 L43.45,23.45 C43.45,16.57 41.78,10.45 37.86,6.34 C33.94,2.23 28.19,0 21.7,0 Z" id="Path"></path>
            <path d="M197.88,37.76 C201.729823,34.0450336 203.954858,28.9587244 204.07,23.61 C204.07,15.9 201.15,10.96 198.7,8.16 C194.676694,3.64795127 188.884237,1.11694697 182.84,1.23 L162.34,1.23 C161.633076,1.23 161.06,1.80307552 161.06,2.51 L161.06,75.51 C161.06,76.2169245 161.633076,76.79 162.34,76.79 L183.76,76.79 C190.266122,76.9300391 196.480892,74.0951026 200.64,69.09 C202.96,66.22 205.44,61.2 205.44,53.57 C205.422985,47.4319006 202.647075,41.6267235 197.88,37.76 Z M176.35,16.61 L182.84,16.61 C184.460254,16.492933 186.045935,17.1183757 187.15,18.31 C188.291494,19.8306447 188.842262,21.7139172 188.7,23.61 C188.83708,25.5876108 188.270331,27.5499808 187.1,29.15 C186.033166,30.3742899 184.461484,31.0383808 182.84,30.95 L176.35,30.95 L176.35,16.61 Z M188.35,59.47 C187.212057,60.8401802 185.487475,61.5835346 183.71,61.47 L176.33,61.47 L176.33,45.84 L183.76,45.84 C185.510549,45.7491465 187.201129,46.4906288 188.32,47.84 C189.557586,49.4773764 190.174154,51.5007098 190.06,53.55 C190.186719,55.658149 189.590562,57.7464633 188.37,59.47 L188.35,59.47 Z" id="Shape" fill-rule="nonzero"></path>
            <path d="M87.9,44.25 C89.2320871,43.3036742 90.4501892,42.2063757 91.53,40.98 C95.4224309,36.4460423 97.4834667,30.6230812 97.31,24.65 C97.4497282,18.7469574 95.3855204,13.0035399 91.52,8.54 C87.5881203,4.13132318 82.0327872,1.51067875 76.13,1.28 L76.13,1.22 L54.5,1.22 C54.1587832,1.21998959 53.8316855,1.35621819 53.5913494,1.59843192 C53.3510133,1.84064565 53.2173342,2.16879357 53.22,2.51 L53.22,75.51 C53.22,76.2169245 53.7930755,76.79 54.5,76.79 L67.31,76.79 C68.0169245,76.79 68.59,76.2169245 68.59,75.51 L68.59,48.31 L73.17,48.31 L81.28,75.88 C81.4428504,76.4239409 81.94221,76.7974457 82.51,76.8 L96.12,76.8 C96.5264568,76.7992721 96.9084092,76.6055428 97.1491154,76.2780246 C97.3898216,75.9505063 97.4606677,75.5281327 97.34,75.14 L87.9,44.25 Z M79.98,30.81 C78.6607391,32.2607422 76.7578314,33.0395384 74.8,32.93 L68.59,32.93 L68.59,16.6 L74.76,16.6 C76.7185631,16.4860871 78.6232842,17.2656255 79.94,18.72 C81.3070505,20.3836496 81.9994304,22.5000481 81.88,24.65 C82.0214005,26.8666068 81.3454334,29.0581634 79.98,30.81 Z" id="Shape" fill-rule="nonzero"></path>
            <path d="M361.52,37.76 C365.377153,34.0492297 367.606568,28.9611288 367.72,23.61 C367.72,15.9 364.8,10.96 362.35,8.16 C358.323598,3.64638481 352.527437,1.11535762 346.48,1.23 L325.99,1.23 C325.283076,1.23 324.71,1.80307552 324.71,2.51 L324.71,75.51 C324.71,76.2169245 325.283076,76.79 325.99,76.79 L347.38,76.79 C353.885513,76.9270878 360.099062,74.0927084 364.26,69.09 C366.57,66.22 369.06,61.2 369.06,53.57 C369.052162,47.4342584 366.283042,41.6279215 361.52,37.76 Z M339.99,16.61 L346.48,16.61 C348.103206,16.4927809 349.691996,17.117999 350.8,18.31 C351.941494,19.8306447 352.492262,21.7139172 352.35,23.61 C352.489477,25.5893947 351.918633,27.5536661 350.74,29.15 C349.674987,30.3768018 348.102016,31.0414376 346.48,30.95 L339.99,30.95 L339.99,16.61 Z M351.99,59.47 C350.847929,60.8404577 349.120336,61.5835085 347.34,61.47 L339.96,61.47 L339.96,45.84 L347.34,45.84 C349.09143,45.7443063 350.784093,46.4867022 351.9,47.84 C353.1451,49.4739959 353.765706,51.4989444 353.65,53.55 C353.79417,55.6511245 353.219354,57.7387985 352.02,59.47 L351.99,59.47 Z" id="Shape" fill-rule="nonzero"></path>
            <path d="M312.03,1.23 L298.92,1.23 C298.258654,1.18992419 297.688068,1.68918705 297.64,2.35 L297.64,54.46 C297.757596,56.5514873 297.153986,58.6199982 295.93,60.32 C294.842089,61.5585124 293.273473,62.2684824 291.625,62.2684824 C289.976527,62.2684824 288.407911,61.5585124 287.32,60.32 C286.096014,58.6199982 285.492404,56.5514873 285.61,54.46 L285.61,54.39 L285.61,36.27 L285.61,2.39 C285.561932,1.72918705 284.991346,1.22992419 284.33,1.27 L271.2,1.27 C270.538654,1.22992419 269.968068,1.72918705 269.92,2.39 L269.92,54.64 C269.92,61.52 271.59,67.64 275.51,71.75 C279.43,75.86 285.12,78.05 291.61,78.05 C298.11,78.05 303.74,75.94 307.72,71.75 C311.7,67.56 313.31,61.52 313.31,54.64 L313.31,2.39 C313.297133,2.06534575 313.154241,1.75950671 312.913488,1.54132392 C312.672734,1.32314113 312.35435,1.21094873 312.03,1.23 Z" id="Path"></path>
            <path d="M366.58,1 C367.798551,0.975624132 368.910739,1.69089319 369.394046,2.80976535 C369.877353,3.9286375 369.635708,5.22870693 368.782638,6.09918569 C367.929569,6.96966445 366.634646,7.23752157 365.50624,6.77691461 C364.377833,6.31630765 363.640244,5.21879459 363.64,4 C363.639673,2.36629716 364.946624,1.03267402 366.58,1 Z M366.58,6.49 C367.585105,6.54318863 368.521222,5.97872144 368.943276,5.06497363 C369.36533,4.15122582 369.188172,3.0725443 368.496032,2.34178679 C367.803892,1.61102928 366.736407,1.37562475 365.801112,1.74749598 C364.865817,2.1193672 364.251406,3.02348986 364.25,4.03 C364.228464,4.66637474 364.462825,5.28484267 364.900686,5.74713446 C365.338548,6.20942626 365.943394,6.47698743 366.58,6.49 Z M365.58,2.49 L366.76,2.49 C367.032089,2.46510475 367.301166,2.56243549 367.494365,2.7556348 C367.687565,2.94883411 367.784895,3.21791146 367.76,3.49 C367.777543,3.86085333 367.543725,4.19722323 367.19,4.31 C367.230304,4.36226685 367.263899,4.4193785 367.29,4.48 L367.89,5.64 L367.24,5.64 L366.66,4.39 L366.16,4.39 L366.16,5.6 L365.57,5.6 L365.58,2.49 Z M366.67,3.98 C366.809899,3.98661399 366.945708,3.93179635 367.041817,3.82992134 C367.137925,3.72804632 367.184745,3.58927649 367.17,3.45 C367.182003,3.31318346 367.133562,3.17796177 367.037413,3.07988952 C366.941263,2.98181727 366.807027,2.93070794 366.67,2.94 L366.17,2.94 L366.17,3.94 L366.67,3.98 Z" id="Shape" fill-rule="nonzero"></path>
        </g>
    </g>
</svg>

<svg width="370" height="79" xmlns="http://www.w3.org/2000/svg"><g fill="#7D7D7D" fill-rule="evenodd"><path d="M257.33 1.23h-12.81a1.28 1.28 0 0 0-1.28 1.28v28.33h-13V2.51a1.28 1.28 0 0 0-1.28-1.28h-12.8a1.28 1.28 0 0 0-1.28 1.28v73c0 .707.573 1.28 1.28 1.28h12.81a1.28 1.28 0 0 0 1.28-1.28V46.18h13v29.34c0 .707.573 1.28 1.28 1.28h12.81a1.28 1.28 0 0 0 1.28-1.28v-73a1.28 1.28 0 0 0-1.29-1.29zM148.47 1.23h-13.11a1.21 1.21 0 0 0-1.28 1.12v52.11a9.15 9.15 0 0 1-1.72 5.86 5.73 5.73 0 0 1-8.61 0 9.15 9.15 0 0 1-1.71-5.86V2.39a1.21 1.21 0 0 0-1.28-1.12h-13.11a1.21 1.21 0 0 0-1.28 1.12v52.25c0 6.88 1.66 13 5.58 17.11s9.61 6.3 16.11 6.3c6.49 0 12.13-2.11 16.1-6.3s5.6-10.27 5.6-17.15V2.39a1.21 1.21 0 0 0-1.29-1.16zM21.7 0C15.2 0 9.57 2.11 5.59 6.3S0 16.53 0 23.41V54.6c0 6.88 1.67 13 5.59 17.11s9.61 6.3 16.11 6.3 12.12-2.11 16.1-6.3 5.59-10.23 5.59-17.11V37.44a1.32 1.32 0 0 0-1.32-1.31h-19a1.36 1.36 0 0 0-1.37 1.31v12.73a1.36 1.36 0 0 0 1.37 1.32h5v2.9a9.66 9.66 0 0 1-1.8 6.19 6 6 0 0 1-9 0 9.67 9.67 0 0 1-1.85-6.19V23.56a9.65 9.65 0 0 1 1.85-6.19 6 6 0 0 1 9 0 9.64 9.64 0 0 1 1.8 6.19v2.89a1.22 1.22 0 0 0 1.28 1.13h12.82a1.22 1.22 0 0 0 1.28-1.13v-3c0-6.88-1.67-13-5.59-17.11S28.19 0 21.7 0z"/><path d="M197.88 37.76a20.27 20.27 0 0 0 6.19-14.15c0-7.71-2.92-12.65-5.37-15.45a20.73 20.73 0 0 0-15.86-6.93h-20.5a1.28 1.28 0 0 0-1.28 1.28v73c0 .707.573 1.28 1.28 1.28h21.42a21.35 21.35 0 0 0 16.88-7.7c2.32-2.87 4.8-7.89 4.8-15.52a20.43 20.43 0 0 0-7.56-15.81zm-21.53-21.15h6.49a5.35 5.35 0 0 1 4.31 1.7 7.85 7.85 0 0 1 1.55 5.3 8.4 8.4 0 0 1-1.6 5.54 5.27 5.27 0 0 1-4.26 1.8h-6.49V16.61zm12 42.86a5.57 5.57 0 0 1-4.64 2h-7.38V45.84h7.43a5.55 5.55 0 0 1 4.56 2 8.67 8.67 0 0 1 1.74 5.71 9.28 9.28 0 0 1-1.69 5.92h-.02zM87.9 44.25a21.178 21.178 0 0 0 3.63-3.27 24 24 0 0 0 5.78-16.33 23.751 23.751 0 0 0-5.79-16.11 21.76 21.76 0 0 0-15.39-7.26v-.06H54.5a1.28 1.28 0 0 0-1.28 1.29v73c0 .707.573 1.28 1.28 1.28h12.81a1.28 1.28 0 0 0 1.28-1.28v-27.2h4.58l8.11 27.57a1.29 1.29 0 0 0 1.23.92h13.61a1.28 1.28 0 0 0 1.22-1.66L87.9 44.25zm-7.92-13.44a6.51 6.51 0 0 1-5.18 2.12h-6.21V16.6h6.17a6.48 6.48 0 0 1 5.18 2.12 8.59 8.59 0 0 1 1.94 5.93 9.08 9.08 0 0 1-1.9 6.16zM361.52 37.76a20.23 20.23 0 0 0 6.2-14.15c0-7.71-2.92-12.65-5.37-15.45a20.74 20.74 0 0 0-15.87-6.93h-20.49a1.28 1.28 0 0 0-1.28 1.28v73c0 .707.573 1.28 1.28 1.28h21.39a21.37 21.37 0 0 0 16.88-7.7c2.31-2.87 4.8-7.89 4.8-15.52a20.4 20.4 0 0 0-7.54-15.81zm-21.53-21.15h6.49a5.37 5.37 0 0 1 4.32 1.7 7.85 7.85 0 0 1 1.55 5.3 8.34 8.34 0 0 1-1.61 5.54 5.25 5.25 0 0 1-4.26 1.8h-6.49V16.61zm12 42.86a5.59 5.59 0 0 1-4.65 2h-7.38V45.84h7.38a5.52 5.52 0 0 1 4.56 2 8.62 8.62 0 0 1 1.75 5.71 9.28 9.28 0 0 1-1.63 5.92h-.03z" fill-rule="nonzero"/><path d="M312.03 1.23h-13.11a1.21 1.21 0 0 0-1.28 1.12v52.11a9.15 9.15 0 0 1-1.71 5.86 5.73 5.73 0 0 1-8.61 0 9.15 9.15 0 0 1-1.71-5.86V2.39a1.21 1.21 0 0 0-1.28-1.12H271.2a1.21 1.21 0 0 0-1.28 1.12v52.25c0 6.88 1.67 13 5.59 17.11s9.61 6.3 16.1 6.3c6.5 0 12.13-2.11 16.11-6.3s5.59-10.23 5.59-17.11V2.39a1.21 1.21 0 0 0-1.28-1.16z"/><path d="M366.58 1a3 3 0 1 1 .12 5.998A3 3 0 0 1 366.58 1zm0 5.49a2.46 2.46 0 1 0-2.33-2.46 2.38 2.38 0 0 0 2.33 2.46zm-1-4h1.18a.92.92 0 0 1 1 1 .82.82 0 0 1-.57.82.79.79 0 0 1 .1.17l.6 1.16h-.65l-.58-1.25h-.5V5.6h-.59l.01-3.11zm1.09 1.49a.48.48 0 0 0 .5-.53.47.47 0 0 0-.5-.51h-.5v1l.5.04z" fill-rule="nonzero"/></g></svg>
